X: 197
T: Wo shi rikeze ren
L: 1/8
M: 2/4
K: Eb
f e c e [I:setbarnb 1]| 
B2B2 | 
c e c B | 
G2G2 | 
c B c c/ B/ | 
G2B3/ G/ | 
F E C/ C/ C | 
E2E z | 
E/ F/ E/ F/ E G | 
E/ F/ E/ F/ E G | 
E/ F/ E/ F/ E C | 
E/ F/ E/ F/ E G | 
E/ F/ E/ F/ E G | 
E/ F/ E/ F/ E z | 
C EG2 | 
B cB2 | 
F B G F | 
E CE2 |]

@@@ Tune index: 8865
